T: Larach Alastair
M: 6/8
L: 1/8
K: Amix
|: (3AAA a>e f>d (3ecA | (3AAA a>e g>e (3dBG | |: A>ec>e A>f (3ecA | A<ec>e B<g (3dBG |[2 A2 c>A d>eg>e | (3agf g>e d>g (3dBG ||
